src/assets/filled/ChartFail.svg

<?xml version="1.0" encoding="UTF-8"?>
<svg width="24" height="24" viewBox="0 0 24 24" xmlns="http://www.w3.org/2000/svg">
 <path d="m21.97 7.21c-0.28-2.73-2.45-4.9-5.18-5.18-0.2-0.02-0.4-0.03-0.6-0.03h-8.38c-0.2 0-0.4 0.01-0.6 0.03-2.73 0.28-4.9 2.45-5.18 5.18-0.02 0.2-0.03 0.4-0.03 0.6v8.38c0 0.2 0.01 0.4 0.03 0.6 0.28 2.73 2.45 4.9 5.18 5.18 0.2 0.02 0.4 0.03 0.6 0.03h6.19c0.55 0 1-0.45 1-1v-2.97c0-1.67 1.36-3.03 3.03-3.03h2.97c0.55 0 1-0.45 1-1v-6.19c0-0.2-0.01-0.4-0.03-0.6zm-14.22 6.29c0 0.41-0.34 0.75-0.75 0.75s-0.75-0.34-0.75-0.75v-3c0-0.41 0.34-0.75 0.75-0.75s0.75 0.34 0.75 0.75v3zm5 0c0 0.41-0.34 0.75-0.75 0.75s-0.75-0.34-0.75-0.75v-3c0-0.41 0.34-0.75 0.75-0.75s0.75 0.34 0.75 0.75v3z"/>
 <path d="m20.97 16h-2.94c-1.27 0-2.03 0.76-2.03 2.03v2.94c0 1.27 0.76 2.03 2.03 2.03h2.94c1.27 0 2.03-0.76 2.03-2.03v-2.94c0-1.27-0.76-2.03-2.03-2.03zm0.5 4.56c0.25 0.25 0.25 0.66 0 0.91-0.13 0.12-0.3 0.18-0.46 0.18s-0.33-0.06-0.46-0.18l-1.06-1.06-1.04 1.06c-0.13 0.12-0.29 0.18-0.47 0.18-0.15 0-0.32-0.06-0.44-0.18-0.25-0.25-0.25-0.66 0-0.91l1.06-1.06-1.06-1.05c-0.25-0.25-0.25-0.66 0-0.91s0.66-0.25 0.91 0l1.04 1.06 1.06-1.06c0.25-0.25 0.67-0.25 0.92 0s0.25 0.66 0 0.91l-1.06 1.05 1.06 1.06z"/>
</svg>

<svg width="24" height="24" viewBox="0 0 24 24"  xmlns="http://www.w3.org/2000/svg">
<path d="M21.97 7.21C21.69 4.48 19.52 2.31 16.79 2.03C16.59 2.01 16.39 2 16.19 2H7.81C7.61 2 7.41 2.01 7.21 2.03C4.48 2.31 2.31 4.48 2.03 7.21C2.01 7.41 2 7.61 2 7.81V16.19C2 16.39 2.01 16.59 2.03 16.79C2.31 19.52 4.48 21.69 7.21 21.97C7.41 21.99 7.61 22 7.81 22H14C14.55 22 15 21.55 15 21V18.03C15 16.36 16.36 15 18.03 15H21C21.55 15 22 14.55 22 14V7.81C22 7.61 21.99 7.41 21.97 7.21ZM7.75 13.5C7.75 13.91 7.41 14.25 7 14.25C6.59 14.25 6.25 13.91 6.25 13.5V10.5C6.25 10.09 6.59 9.75 7 9.75C7.41 9.75 7.75 10.09 7.75 10.5V13.5ZM12.75 13.5C12.75 13.91 12.41 14.25 12 14.25C11.59 14.25 11.25 13.91 11.25 13.5V10.5C11.25 10.09 11.59 9.75 12 9.75C12.41 9.75 12.75 10.09 12.75 10.5V13.5Z" />
<path d="M20.97 16H18.03C16.76 16 16 16.76 16 18.03V20.97C16 22.24 16.76 23 18.03 23H20.97C22.24 23 23 22.24 23 20.97V18.03C23 16.76 22.24 16 20.97 16ZM21.47 20.56C21.72 20.81 21.72 21.22 21.47 21.47C21.34 21.59 21.17 21.65 21.01 21.65C20.85 21.65 20.68 21.59 20.55 21.47L19.49 20.41L18.45 21.47C18.32 21.59 18.16 21.65 17.98 21.65C17.83 21.65 17.66 21.59 17.54 21.47C17.29 21.22 17.29 20.81 17.54 20.56L18.6 19.5L17.54 18.45C17.29 18.2 17.29 17.79 17.54 17.54C17.79 17.29 18.2 17.29 18.45 17.54L19.49 18.6L20.55 17.54C20.8 17.29 21.22 17.29 21.47 17.54C21.72 17.79 21.72 18.2 21.47 18.45L20.41 19.5L21.47 20.56Z" />
</svg>
